apps/trade/public/tokens/near.svg

<svg width="24" height="24" viewBox="0 0 24 25" fill="none" xmlns="http://www.w3.org/2000/svg">
<rect y="0.5" width="24" height="24" rx="12" fill="white"/>
<path d="M15.616 7.11333L13.1121 10.8333C12.939 11.0867 13.2719 11.3933 13.5117 11.18L15.9756 9.03333C16.0422 8.98 16.1354 9.02 16.1354 9.11333V15.82C16.1354 15.9133 16.0155 15.9533 15.9623 15.8867L8.50388 6.95333C8.26415 6.66 7.91787 6.5 7.53163 6.5H7.26526C6.5727 6.5 6 7.07333 6 7.78V17.22C6 17.9267 6.5727 18.5 7.27858 18.5C7.71809 18.5 8.13097 18.2733 8.3707 17.8867L10.8746 14.1667C11.0477 13.9133 10.7148 13.6067 10.475 13.82L8.0111 15.9533C7.94451 16.0067 7.85128 15.9667 7.85128 15.8733V9.18C7.85128 9.08667 7.97114 9.04667 8.02442 9.11333L15.4828 18.0467C15.7225 18.34 16.0821 18.5 16.4551 18.5H16.7214C17.4273 18.5 18 17.9267 18 17.22V7.78C18 7.07333 17.4273 6.5 16.7214 6.5C16.2686 6.5 15.8557 6.72667 15.616 7.11333Z" fill="black"/>
</svg>

<svg width="24" height="24" viewBox="0 0 24 25" fill="none" xmlns="http://www.w3.org/2000/svg">
    <rect y=".5" width="24" height="24" rx="12" fill="#fff"/>
    <path d="m15.616 7.113-2.504 3.72c-.173.254.16.56.4.347l2.464-2.147c.066-.053.16-.013.16.08v6.707c0 .093-.12.133-.174.067L8.504 6.953a1.232 1.232 0 0 0-.972-.453h-.267C6.573 6.5 6 7.073 6 7.78v9.44a1.28 1.28 0 0 0 2.37.667l2.505-3.72c.173-.254-.16-.56-.4-.347l-2.464 2.133c-.066.054-.16.014-.16-.08V9.18c0-.093.12-.133.173-.067l7.459 8.934c.24.293.6.453.972.453h.266A1.28 1.28 0 0 0 18 17.22V7.78a1.28 1.28 0 0 0-1.279-1.28 1.29 1.29 0 0 0-1.105.613Z" fill="#000"/>
</svg>
